X:221
T:Rub-a-Dub
M:4/4
K:G
d2 d2 dc B2 | c2 c2 cB A2 | B2 B2 BA G2 | A2 F2 D4 | 
d2 d2 dc B2 | c2 c2 cB A2 | BAGB A3 F | G4 -G4 || 
AGFE D2 D2 | AGFE D2 EF | G2 G2 A2 A2 | BcBA B4 | 
AGFE D2 D2 | AGFE D2 EF | G2 G2 A2 F2 | G4 -G4 || 

